contributed-vectors/soul_knight.svg

<svg xmlns="http://www.w3.org/2000/svg" width="192" height="192" fill="none"><g clip-path="url(#a)"><g clip-path="url(#b)"><path fill="#000" fill-rule="evenodd" d="M173 29v133c0 5.53-4.48 10-10 10H30c-5.52 0-10-4.48-10-10V29c0-5.53 4.48-10 10-10h133c5.52 0 10 4.47 10 10Z" clip-rule="evenodd"/><path fill="#96DFD3" d="M113.42 146.5c.03 1.3.07 2.6.1 3.9-3.54.49-7 .85-10.37 1.08l.03-3.81 10.24-1.17Z"/><path fill="#96DFD3" d="M138.86 19c-3.32 42.81-6.65 85.61-9.97 128.42-2.05.51-4.15.99-6.31 1.43-1.94.39-3.86.74-5.76 1.05.03-1.21.07-2.41.09-3.62.54-.08 1.06-.15 1.6-.22-.13-4.15.32-6.24.81-7.38.09-.21.48-1.07.87-2.3 0 0 .37-1.14.65-2.4.6-2.71.48-4.83.43-6.03-.09-2.79-.12-6.24-.1-10.7.01-.22-.01-.54-.11-.9-.12-.38-.29-.67-.42-.86-1.79-2.91-3.83-4.39-5.03-5.11-7.07-4.24-17.25-1.69-22.62 4.14-.65.71-1.56 1.71-2.33 3.26-3.09 6.23-.26 13.55 3.54 22.99.85 2.12 1.93 4.59 3.29 7.28.91-.09 1.82-.16 2.73-.24-.03 1.28-.07 2.57-.09 3.84-.44.03-.88.05-1.33.07-3.78.16-7.45.17-10.97.07-15.5-44.27-31-88.54-46.5-132.8h97.53V19Z"/><path fill="#000" d="M120.84 133.98c-.28 1.26-.65 2.4-.65 2.4-.39 1.22-.77 2.08-.87 2.3-.48 1.14-.94 3.23-.81 7.38-.54.07-1.06.14-1.6.22l-.09 3.62c-.2.03-.42.07-.62.1-.48.09-.96.15-1.44.23l-1.23.18c-.03-1.3-.07-2.6-.1-3.9l-10.24 1.17-.03 3.81c-.3.03-.6.05-.88.07-.72.05-1.44.09-2.15.12.03-1.27.07-2.56.09-3.84-.91.08-1.82.15-2.73.24a92.103 92.103 0 0 1-3.29-7.28c-3.8-9.44-6.63-16.76-3.54-22.99.77-1.56 1.67-2.55 2.33-3.26 5.37-5.83 15.55-8.38 22.62-4.14 1.2.72 3.24 2.2 5.03 5.11.13.19.3.48.42.86.1.37.12.68.11.9-.02 4.46.01 7.91.1 10.7.04 1.17.16 3.29-.43 6Z"/><path fill="#E85E5C" d="M157.46 117.04c-.79 3.47-2.58 6.28-4.8 8.65.99-2.07 1.97-4.59 2.69-7.53 1.19-4.85 2.09-8.47.49-12.67-2.26-5.95-7.84-8.55-8.97-9.05-2.21-.98-4.22-1.29-5.59-1.39-.33-.07-.57-.35-.58-.64 0-.36.36-.7.8-.65.54-.03.88-.3.88-.48-.01-.18-.32-.38-.77-.42-3.78-.76-9.66-1.49-16.46-.1-7.87 1.6-11.09 4.9-19.82 7.81-6.33 2.11-11.4 2.46-18.35 3.19-8.21.86-12.55 1.31-18.29.31-9.04-1.58-15.38-6.02-15.17-5.9 4.16 2.41 10.1 3.51 16.94 4.79 7.53 1.4 11.38.69 14.07-.25 3.88-1.37 6.18-3.51 7.65-4.69 4.28-3.46 11.71-6.97 25.47-6.83.65.09 1.17-.3 1.23-.74.05-.43-.36-.77-.38-.8-1.6-.04-3.19-.09-4.78-.14-.58-.11-1-.62-1.01-1.21-.01-.6.42-1.12 1.01-1.23 4.52-.71 11.21-1.21 19.01.36 6.09 1.22 11.53 2.3 16.62 6.91 1.16 1.05 7.74 7.2 8.44 16.89.11 1.44.23 3.37-.33 5.81ZM166.57 50.95c-.6.54-2.38.21-3.72-1.39-.4-.32-.82-.65-1.27-.96a25.7 25.7 0 0 0-5.74-3.07c1.6.65 4.85 2.28 7.2 5.83 1.39 2.1 1.98 4.13 2.25 5.5.1.51.03 1.02-.18 1.46-8.68-6.22-25.33-16.12-46.96-17.29-16.01-.88-30.28 3.25-35.21 4.72-6.21 1.84-11.27 3.92-14.92 5.59-1.56.5-2.92-.38-3.07-1.32-.11-.69.42-1.52 1.31-1.97 1.57-1.03 3.15-2.05 4.72-3.08 1.16-.67 1.36-2.02.88-2.63-.45-.58-1.7-.71-2.63.1-6.94 2.24-25.45 9.3-33.12 26.88-.92 2.1-1.73 4.47-2.33 7.12.16-16.93 13.65-29.2 18.45-33.56 6.13-5.57 11.89-8.49 16.12-10.64 3.25-1.64 13.79-6.72 28.68-8.69a92.71 92.71 0 0 1 23.14-.14c1.52.11 2.62.95 2.73 1.89.08.62-.29 1.12-.37 1.23-.54.74-1.53 1.09-2.59.91-.57.17-.97.67-.99 1.23-.03.64.43 1.22 1.08 1.37 1.65-.05 20.19-.5 31.45 4.65 5.41 2.47 8.99 5.86 8.99 5.86 2.57 2.41 4.23 4.85 5.24 6.55 1.37 1.56 1.46 3.32.86 3.85Z"/><path fill="#E85E5C" d="m126.95 24.04 2.86.06a1.725 1.725 0 0 1 0 3.38c-.98.01-1.96.01-2.94.02-.82-.16-1.41-.86-1.44-1.67-.02-.87.63-1.66 1.52-1.79Z"/><path fill="#B02A3C" d="M165.11 58.32c-.2.44-.53.8-.95 1.03-.99.52-2.3.18-2.97-.82-1.66-1.4-4.11-3.34-7.28-5.35-17.02-10.81-34.45-11-39.77-11.02-25.68-.12-54.17 13.17-63.72 34.24-.47 1.04-1.08 2.42-1.63 4-1.33 3.79-2.3 8.76-.04 13 .82 1.54 1.94 2.78 3.34 3.82.39.26.82.54 1.28.84.04.03.08.05.12.08.01.01.03.02.03.02 3.25 2.02 8.41 4.68 15.17 5.9 5.64 1.01 9.89.57 18.29-.31 6.94-.72 12.02-1.08 18.35-3.19 8.73-2.91 11.95-6.21 19.82-7.81 6.8-1.39 12.67-.66 16.46.1.44.04.76.25.77.42.01.19-.33.46-.88.48-.44-.04-.8.3-.8.65.01.29.25.57.58.64 1.37.1 3.38.42 5.59 1.39 1.13.5 6.71 3.1 8.97 9.05 1.6 4.19.7 7.82-.49 12.67-.72 2.94-1.71 5.47-2.69 7.53-2.8 2.99-6.32 5.28-9.4 7.3-2.12 1.39-5.2 3.2-9.21 4.83.33.06.65.11.99.16.55.26.88.82.82 1.34-.08.68-.79 1.24-1.61 1.12l-14.58.15c-.13.36-.25.69-.38 1-3.58-.2-7.93-.17-12.83.49-4.02.54-7.56 1.39-10.53 2.3-.93-.74-2.36-2.07-3.54-4.16-1.2-2.13-1.59-4.11-1.73-5.3 5.91-.28 12.41-.91 19.37-2.1 3.94-.66 7.65-1.44 11.14-2.3.05 1.09.04 2.37-.1 3.82 2.16-.03 4.32-.08 6.48-.11.98-.54 2.3-1.29 3.83-2.26 1.39-.88 3.2-2.03 5.14-3.62 2.37-1.94 4.04-3.79 4.69-4.56 3.19-3.81 7.83-12.67 4.3-20.2-1.83-3.89-5.13-5.9-5.92-6.36-.7-.41-3.62-2.01-8.22-1.97-10.42.08-25.02 8.53-35.65 12.99-8.81 3.71-20.46 8.7-33.15 6.69-13.25-2.08-22.41-10.93-27.09-16.34-.46-.76-.43-1.64 0-2.08.56-.59 1.92-.54 2.71.54 1.38 1.39 2.23 1.97 2.55 1.76.22-.14.2-.66-.06-1.55-.49-.71-.95-1.39-1.38-2.08-.67-1.1-1.27-2.17-1.79-3.2-2.81-5.63-3.48-10.36-3.66-13.07-.06-.83-.08-1.66-.08-2.47.6-2.65 1.41-5.02 2.33-7.12 7.68-17.57 26.2-24.62 33.13-26.87.93-.82 2.18-.68 2.63-.1.48.6.29 1.95-.88 2.63-1.57 1.03-3.15 2.05-4.72 3.08-.88.45-1.42 1.28-1.31 1.97.14.94 1.5 1.82 3.07 1.32 3.65-1.67 8.7-3.76 14.92-5.59 4.93-1.47 19.2-5.59 35.21-4.72 21.63 1.16 38.28 11.06 46.96 17.28Z"/><path fill="#C2E5DF" d="M99.39 128.11c-.74.34-1.63.55-2.64.38-.71-.12-1.3-.4-1.75-.7.03-.79.13-2.05 1.12-2.73.49-.34 1.3-.6 2-.3 1.36.59 1.29 2.84 1.27 3.35ZM114.15 125.9c-.63.48-1.4.73-2.18.68-.77-.04-1.37-.37-1.82-.73-.12-.82-.09-1.75.53-2.45.41-.45 1.19-.96 1.92-.76 1.18.31 1.42 2.23 1.5 2.91.03.11.04.23.05.35Z"/><path fill="#fff" d="M99.39 128.11c-.03.82-.08 2.3-1.18 2.92-.64.36-1.65.5-2.28.01-.3-.24-.42-.57-.65-1.24-.28-.78-.28-1.48-.28-1.82 0-.06.01-.12.01-.18.45.3 1.04.58 1.75.7 1 .17 1.89-.05 2.63-.39ZM113.57 128.34c-.61.5-1.62.61-2.3.16-.48-.32-.64-.82-.82-1.48-.09-.31-.2-.73-.28-1.17.45.37 1.05.69 1.82.73.77.05 1.55-.2 2.18-.68.09.85.11 1.84-.6 2.44Z"/><path fill="#73ADA4" d="M100.12 151.67c-7.33 6.78-14.66 13.55-21.99 20.33H36.46c8.97-7.2 22.76-15.86 41-19.05 4.52-.79 8.77-1.04 10.36-1.15 4.87-.31 9.06-.27 12.3-.13ZM113.53 150.4c-.93 7.2-1.85 14.4-2.78 21.6H87.68l15.48-20.52c1.7-.12 3.46-.27 5.27-.45 1.75-.19 3.45-.4 5.1-.63ZM173 140.93V162c0 5.53-4.48 10-10 10h-38.54c-2.54-7.37-5.09-14.74-7.63-22.11 1.18-.19 3.22-.53 5.76-1.05 3.26-.66 5.63-1.27 6.31-1.43a285.3 285.3 0 0 1 29.84-5.16c4.91-.58 9.68-1.01 14.26-1.32Z"/></g></g><defs><clipPath id="a"><path fill="#fff" d="M0 0h192v192H0z"/></clipPath><clipPath id="b"><path fill="#fff" d="M20 19h153v153H20z"/></clipPath></defs></svg>

<svg width="192" height="192" viewBox="0 0 192 192" fill="none" xmlns="http://www.w3.org/2000/svg">
<g clip-path="url(#clip0)">
<g clip-path="url(#clip1)">
<path fill-rule="evenodd" clip-rule="evenodd" d="M173 29V162C173 167.53 168.52 172 163 172H30C24.48 172 20 167.52 20 162V29C20 23.47 24.48 19 30 19H163C168.52 19 173 23.47 173 29Z" fill="black"/>
<path d="M113.42 146.5C113.45 147.8 113.49 149.1 113.52 150.4C109.98 150.89 106.52 151.25 103.15 151.48C103.16 150.21 103.17 148.94 103.18 147.67C106.6 147.28 110.01 146.89 113.42 146.5Z" fill="#96DFD3"/>
<path d="M138.86 19C135.54 61.81 132.21 104.61 128.89 147.42C126.84 147.93 124.74 148.41 122.58 148.85C120.64 149.24 118.72 149.59 116.82 149.9C116.85 148.69 116.89 147.49 116.91 146.28C117.45 146.2 117.97 146.13 118.51 146.06C118.38 141.91 118.83 139.82 119.32 138.68C119.41 138.47 119.8 137.61 120.19 136.38C120.19 136.38 120.56 135.24 120.84 133.98C121.44 131.27 121.32 129.15 121.27 127.95C121.18 125.16 121.15 121.71 121.17 117.25C121.18 117.03 121.16 116.71 121.06 116.35C120.94 115.97 120.77 115.68 120.64 115.49C118.85 112.58 116.81 111.1 115.61 110.38C108.54 106.14 98.3601 108.69 92.9901 114.52C92.3401 115.23 91.4301 116.23 90.6601 117.78C87.5701 124.01 90.4001 131.33 94.2001 140.77C95.0501 142.89 96.1301 145.36 97.4901 148.05C98.4001 147.96 99.3101 147.89 100.22 147.81C100.19 149.09 100.15 150.38 100.13 151.65C99.6901 151.68 99.2501 151.7 98.8001 151.72C95.0201 151.88 91.3501 151.89 87.8301 151.79C72.3301 107.52 56.8301 63.25 41.3301 18.99H138.86V19Z" fill="#96DFD3"/>
<path d="M120.84 133.98C120.56 135.24 120.19 136.38 120.19 136.38C119.8 137.6 119.42 138.46 119.32 138.68C118.84 139.82 118.38 141.91 118.51 146.06C117.97 146.13 117.45 146.2 116.91 146.28C116.88 147.49 116.85 148.69 116.82 149.9C116.62 149.93 116.4 149.97 116.2 150C115.72 150.09 115.24 150.15 114.76 150.23C114.35 150.29 113.94 150.35 113.53 150.41C113.5 149.11 113.46 147.81 113.43 146.51C110.01 146.9 106.6 147.29 103.19 147.68C103.18 148.95 103.17 150.22 103.16 151.49C102.86 151.52 102.56 151.54 102.28 151.56C101.56 151.61 100.84 151.65 100.13 151.68C100.16 150.41 100.2 149.12 100.22 147.84C99.31 147.92 98.4 147.99 97.49 148.08C96.13 145.39 95.05 142.92 94.2 140.8C90.4 131.36 87.57 124.04 90.66 117.81C91.43 116.25 92.33 115.26 92.99 114.55C98.36 108.72 108.54 106.17 115.61 110.41C116.81 111.13 118.85 112.61 120.64 115.52C120.77 115.71 120.94 116 121.06 116.38C121.16 116.75 121.18 117.06 121.17 117.28C121.15 121.74 121.18 125.19 121.27 127.98C121.31 129.15 121.43 131.27 120.84 133.98Z" fill="black"/>
<path d="M157.46 117.04C156.67 120.51 154.88 123.32 152.66 125.69C153.65 123.62 154.63 121.1 155.35 118.16C156.54 113.31 157.44 109.69 155.84 105.49C153.58 99.54 148 96.94 146.87 96.44C144.66 95.46 142.65 95.15 141.28 95.05C140.95 94.98 140.71 94.7 140.7 94.41C140.7 94.05 141.06 93.71 141.5 93.76C142.04 93.73 142.38 93.46 142.38 93.28C142.37 93.1 142.06 92.9 141.61 92.86C137.83 92.1 131.95 91.37 125.15 92.76C117.28 94.36 114.06 97.66 105.33 100.57C99 102.68 93.93 103.03 86.98 103.76C78.77 104.62 74.43 105.07 68.69 104.07C59.65 102.49 53.31 98.05 53.52 98.17C57.68 100.58 63.62 101.68 70.46 102.96C77.99 104.36 81.84 103.65 84.53 102.71C88.41 101.34 90.71 99.2 92.18 98.02C96.46 94.56 103.89 91.05 117.65 91.19C118.3 91.28 118.82 90.89 118.88 90.45C118.93 90.02 118.52 89.68 118.5 89.65C116.9 89.61 115.31 89.56 113.72 89.51C113.14 89.4 112.72 88.89 112.71 88.3C112.7 87.7 113.13 87.18 113.72 87.07C118.24 86.36 124.93 85.86 132.73 87.43C138.82 88.65 144.26 89.73 149.35 94.34C150.51 95.39 157.09 101.54 157.79 111.23C157.9 112.67 158.02 114.6 157.46 117.04Z" fill="#E85E5C"/>
<path d="M166.57 50.95C165.97 51.49 164.19 51.16 162.85 49.56C162.45 49.24 162.03 48.91 161.58 48.6C159.61 47.19 157.63 46.22 155.84 45.53C157.44 46.18 160.69 47.81 163.04 51.36C164.43 53.46 165.02 55.49 165.29 56.86C165.39 57.37 165.32 57.88 165.11 58.32C156.43 52.1 139.78 42.2 118.15 41.03C102.14 40.15 87.87 44.28 82.94 45.75C76.73 47.59 71.67 49.67 68.02 51.34C66.46 51.84 65.1 50.96 64.95 50.02C64.84 49.33 65.37 48.5 66.26 48.05C67.83 47.02 69.41 46 70.98 44.97C72.14 44.3 72.34 42.95 71.86 42.34C71.41 41.76 70.16 41.63 69.23 42.44C62.29 44.68 43.78 51.74 36.11 69.32C35.19 71.42 34.38 73.79 33.78 76.44C33.94 59.51 47.43 47.24 52.23 42.88C58.36 37.31 64.12 34.39 68.35 32.24C71.6 30.6 82.14 25.52 97.03 23.55C102.69 22.8 110.67 22.28 120.17 23.41C121.69 23.52 122.79 24.36 122.9 25.3C122.98 25.92 122.61 26.42 122.53 26.53C121.99 27.27 121 27.62 119.94 27.44C119.37 27.61 118.97 28.11 118.95 28.67C118.92 29.31 119.38 29.89 120.03 30.04C121.68 29.99 140.22 29.54 151.48 34.69C156.89 37.16 160.47 40.55 160.47 40.55C163.04 42.96 164.7 45.4 165.71 47.1C167.08 48.66 167.17 50.42 166.57 50.95Z" fill="#E85E5C"/>
<path d="M126.95 24.04C127.9 24.06 128.86 24.08 129.81 24.1C130.61 24.26 131.19 24.97 131.19 25.79C131.19 26.61 130.61 27.31 129.81 27.48C128.83 27.49 127.85 27.49 126.87 27.5C126.05 27.34 125.46 26.64 125.43 25.83C125.41 24.96 126.06 24.17 126.95 24.04Z" fill="#E85E5C"/>
<path d="M165.11 58.32C164.91 58.76 164.58 59.12 164.16 59.35C163.17 59.87 161.86 59.53 161.19 58.53C159.53 57.13 157.08 55.19 153.91 53.18C136.89 42.37 119.46 42.18 114.14 42.16C88.46 42.04 59.97 55.33 50.42 76.4C49.95 77.44 49.34 78.82 48.79 80.4C47.46 84.19 46.49 89.16 48.75 93.4C49.57 94.94 50.69 96.18 52.09 97.22C52.48 97.48 52.91 97.76 53.37 98.06C53.41 98.09 53.45 98.11 53.49 98.14C53.5 98.15 53.52 98.16 53.52 98.16C56.77 100.18 61.93 102.84 68.69 104.06C74.33 105.07 78.58 104.63 86.98 103.75C93.92 103.03 99 102.67 105.33 100.56C114.06 97.65 117.28 94.35 125.15 92.75C131.95 91.36 137.82 92.09 141.61 92.85C142.05 92.89 142.37 93.1 142.38 93.27C142.39 93.46 142.05 93.73 141.5 93.75C141.06 93.71 140.7 94.05 140.7 94.4C140.71 94.69 140.95 94.97 141.28 95.04C142.65 95.14 144.66 95.46 146.87 96.43C148 96.93 153.58 99.53 155.84 105.48C157.44 109.67 156.54 113.3 155.35 118.15C154.63 121.09 153.64 123.62 152.66 125.68C149.86 128.67 146.34 130.96 143.26 132.98C141.14 134.37 138.06 136.18 134.05 137.81C134.38 137.87 134.7 137.92 135.04 137.97C135.59 138.23 135.92 138.79 135.86 139.31C135.78 139.99 135.07 140.55 134.25 140.43C129.39 140.48 124.53 140.53 119.67 140.58C119.54 140.94 119.42 141.27 119.29 141.58C115.71 141.38 111.36 141.41 106.46 142.07C102.44 142.61 98.9 143.46 95.93 144.37C95 143.63 93.57 142.3 92.39 140.21C91.19 138.08 90.8 136.1 90.66 134.91C96.57 134.63 103.07 134 110.03 132.81C113.97 132.15 117.68 131.37 121.17 130.51C121.22 131.6 121.21 132.88 121.07 134.33C123.23 134.3 125.39 134.25 127.55 134.22C128.53 133.68 129.85 132.93 131.38 131.96C132.77 131.08 134.58 129.93 136.52 128.34C138.89 126.4 140.56 124.55 141.21 123.78C144.4 119.97 149.04 111.11 145.51 103.58C143.68 99.69 140.38 97.68 139.59 97.22C138.89 96.81 135.97 95.21 131.37 95.25C120.95 95.33 106.35 103.78 95.72 108.24C86.91 111.95 75.26 116.94 62.57 114.93C49.32 112.85 40.16 104 35.48 98.59C35.02 97.83 35.05 96.95 35.48 96.51C36.04 95.92 37.4 95.97 38.19 97.05C39.57 98.44 40.42 99.02 40.74 98.81C40.96 98.67 40.94 98.15 40.68 97.26C40.19 96.55 39.73 95.87 39.3 95.18C38.63 94.08 38.03 93.01 37.51 91.98C34.7 86.35 34.03 81.62 33.85 78.91C33.79 78.08 33.77 77.25 33.77 76.44C34.37 73.79 35.18 71.42 36.1 69.32C43.78 51.75 62.3 44.7 69.23 42.45C70.16 41.63 71.41 41.77 71.86 42.35C72.34 42.95 72.15 44.3 70.98 44.98C69.41 46.01 67.83 47.03 66.26 48.06C65.38 48.51 64.84 49.34 64.95 50.03C65.09 50.97 66.45 51.85 68.02 51.35C71.67 49.68 76.72 47.59 82.94 45.76C87.87 44.29 102.14 40.17 118.15 41.04C139.78 42.2 156.43 52.1 165.11 58.32Z" fill="#B02A3C"/>
<path d="M99.39 128.11C98.65 128.45 97.76 128.66 96.75 128.49C96.04 128.37 95.45 128.09 95 127.79C95.03 127 95.13 125.74 96.12 125.06C96.61 124.72 97.42 124.46 98.12 124.76C99.48 125.35 99.41 127.6 99.39 128.11Z" fill="#C2E5DF"/>
<path d="M114.15 125.9C113.52 126.38 112.75 126.63 111.97 126.58C111.2 126.54 110.6 126.21 110.15 125.85C110.03 125.03 110.06 124.1 110.68 123.4C111.09 122.95 111.87 122.44 112.6 122.64C113.78 122.95 114.02 124.87 114.1 125.55C114.13 125.66 114.14 125.78 114.15 125.9Z" fill="#C2E5DF"/>
<path d="M99.39 128.11C99.36 128.93 99.31 130.41 98.21 131.03C97.57 131.39 96.56 131.53 95.93 131.04C95.63 130.8 95.51 130.47 95.28 129.8C95 129.02 95 128.32 95 127.98C95 127.92 95.01 127.86 95.01 127.8C95.46 128.1 96.05 128.38 96.76 128.5C97.76 128.67 98.65 128.45 99.39 128.11Z" fill="white"/>
<path d="M113.57 128.34C112.96 128.84 111.95 128.95 111.27 128.5C110.79 128.18 110.63 127.68 110.45 127.02C110.36 126.71 110.25 126.29 110.17 125.85C110.62 126.22 111.22 126.54 111.99 126.58C112.76 126.63 113.54 126.38 114.17 125.9C114.26 126.75 114.28 127.74 113.57 128.34Z" fill="white"/>
<path d="M100.12 151.67C92.79 158.45 85.46 165.22 78.13 172H36.46C45.43 164.8 59.22 156.14 77.46 152.95C81.98 152.16 86.23 151.91 87.82 151.8C92.69 151.49 96.88 151.53 100.12 151.67Z" fill="#73ADA4"/>
<path d="M113.53 150.4C112.6 157.6 111.68 164.8 110.75 172H87.6799C92.8399 165.16 97.9999 158.32 103.16 151.48C104.86 151.36 106.62 151.21 108.43 151.03C110.18 150.84 111.88 150.63 113.53 150.4Z" fill="#73ADA4"/>
<path d="M173 140.93V162C173 167.53 168.52 172 163 172H124.46C121.92 164.63 119.37 157.26 116.83 149.89C118.01 149.7 120.05 149.36 122.59 148.84C125.85 148.18 128.22 147.57 128.9 147.41C137.83 145.37 147.81 143.55 158.74 142.25C163.65 141.67 168.42 141.24 173 140.93Z" fill="#73ADA4"/>
</g>
</g>
<defs>
<clipPath id="clip0">
<rect width="192" height="192" fill="white"/>
</clipPath>
<clipPath id="clip1">
<rect width="153" height="153" fill="white" transform="translate(20 19)"/>
</clipPath>
</defs>
</svg>
